X: 20823
T: Johnny's
R: reel
M: 4/4
K: Edorian
|:B2cA BE~E2|BABc dfec|dBAF ~D3E|FDFA dfed|
B2cA BE~E2|BABc d2Ad|fedf edef|1 dBAF EFGA:|2 dBAF E3z||
|:B2ed Be~e2|BABc dfec|dBAF ~D3E|FDFA dfed|
B2ed Be~e2|BABc d2Ad|fedf edef|1 dBAF E3z:|2 dBAF EFGA||

